svgs/instagram.svg

<svg width="24" height="24" viewBox="0 0 24 24" fill="none" xmlns="http://www.w3.org/2000/svg">
<path fill-rule="evenodd" clip-rule="evenodd" d="M16.929 2.07112C15.6427 2.01244 15.2569 2 12 2C8.74306 2 8.3573 2.01239 7.07107 2.07108C5.88181 2.12531 5.23597 2.32402 4.80615 2.49105C4.27635 2.68659 3.79711 2.99839 3.40366 3.40351C2.9985 3.79696 2.68668 4.27622 2.49111 4.80605C2.32407 5.23591 2.1254 5.88171 2.07112 7.07097C2.01244 8.3573 2 8.74296 2 12C2 15.257 2.01244 15.6428 2.07112 16.9289C2.12537 18.1182 2.32407 18.7641 2.49111 19.1938C2.68666 19.7237 2.99844 20.2029 3.40356 20.5964C3.79701 21.0016 4.27624 21.3133 4.80605 21.5089C5.23591 21.6759 5.88173 21.8746 7.07097 21.9288C8.35712 21.9874 8.74273 22 12 22C15.2573 22 15.6431 21.9874 16.929 21.9288C18.1182 21.8746 18.7641 21.6759 19.1939 21.5089C19.7199 21.3059 20.1978 20.9952 20.5964 20.5964C20.9952 20.1977 21.3059 19.7199 21.5088 19.1938C21.6758 18.7641 21.8745 18.1182 21.9288 16.9289C21.9875 15.6427 21.9999 15.257 21.9999 12C21.9999 8.74296 21.9875 8.35721 21.9288 7.07097C21.8746 5.88171 21.6759 5.23586 21.5088 4.80605C21.3133 4.27624 21.0015 3.79701 20.5964 3.40356C20.2029 2.99844 19.7237 2.68666 19.1939 2.49111C18.7641 2.32407 18.1182 2.1254 16.929 2.07112ZM18.5111 6.95236C19.3195 6.95236 19.9748 6.29706 19.9748 5.48868C19.9748 4.68031 19.3195 4.02499 18.5111 4.02499C17.7028 4.02499 17.0474 4.68031 17.0474 5.48868C17.0474 6.29706 17.7028 6.95236 18.5111 6.95236ZM12 5.73611C10.7612 5.73611 9.55017 6.10347 8.5201 6.79174C7.49005 7.47999 6.68723 8.45824 6.21314 9.60276C5.73907 10.7474 5.61502 12.0067 5.8567 13.2218C6.09838 14.4368 6.69494 15.5529 7.57094 16.4288C8.44691 17.3049 9.56304 17.9014 10.778 18.1431C11.9931 18.3847 13.2525 18.2607 14.397 17.7867C15.5416 17.3125 16.5199 16.5098 17.2082 15.4797C17.8962 14.4496 18.2636 13.2386 18.2636 11.9998C18.2636 10.3385 17.6037 8.74537 16.4291 7.5707C15.2543 6.39604 13.6612 5.73611 12 5.73611ZM12 16.0657C11.1958 16.0657 10.4098 15.8271 9.74112 15.3803C9.07254 14.9336 8.55142 14.2986 8.2437 13.5557C7.93596 12.8127 7.85545 11.9953 8.01233 11.2065C8.16923 10.4179 8.55646 9.69339 9.12509 9.12477C9.69367 8.55617 10.4182 8.16893 11.2068 8.01204C11.9956 7.85517 12.8131 7.93568 13.5561 8.24343C14.2989 8.55116 14.9339 9.07229 15.3807 9.74096C15.8274 10.4096 16.066 11.1957 16.066 11.9998C16.0659 13.0781 15.6375 14.1122 14.875 14.8748C14.1125 15.6373 13.0783 16.0657 12 16.0657Z" fill="#FFF1C0"/>
</svg>

<svg xmlns="http://www.w3.org/2000/svg" width="24" height="24" fill="none" viewBox="0 0 24 24"><path fill="#FFF1C0" fill-rule="evenodd" d="M16.929 2.071C15.643 2.012 15.257 2 12 2c-3.257 0-3.643.012-4.929.071-1.19.054-1.835.253-2.265.42a3.78 3.78 0 0 0-1.402.913 3.78 3.78 0 0 0-.913 1.402c-.167.43-.366 1.076-.42 2.265C2.012 8.357 2 8.743 2 12c0 3.257.012 3.643.071 4.929.054 1.19.253 1.835.42 2.265.196.53.507 1.009.913 1.402.393.406.872.717 1.402.913.43.167 1.076.366 2.265.42C8.357 21.987 8.743 22 12 22c3.257 0 3.643-.013 4.929-.071 1.19-.054 1.835-.253 2.265-.42a4.039 4.039 0 0 0 2.315-2.315c.167-.43.366-1.076.42-2.265.059-1.286.07-1.672.07-4.929 0-3.257-.011-3.643-.07-4.929-.054-1.19-.253-1.835-.42-2.265a3.779 3.779 0 0 0-.913-1.402 3.78 3.78 0 0 0-1.402-.913c-.43-.167-1.076-.366-2.265-.42m1.582 4.881a1.464 1.464 0 1 0 0-2.927 1.464 1.464 0 0 0 0 2.927ZM12 5.736a6.264 6.264 0 1 0 0 12.528 6.264 6.264 0 0 0 0-12.528m0 10.33a4.066 4.066 0 1 1 0-8.132 4.066 4.066 0 0 1 0 8.132" clip-rule="evenodd"/></svg>
